public/images/icons/train.svg

<svg viewBox="0 0 51.77 51" xmlns="http://www.w3.org/2000/svg"><path d="m23.83 50.5h-10v-10h10zm13.34-23.33h-10v10h10zm-31.67-26.67a5 5 0 1 0 5 5 5 5 0 0 0 -5-5zm0 40a5 5 0 1 0 5 5 5 5 0 0 0 -5-5zm26.67 0a5 5 0 1 0 5 5 5 5 0 0 0 -5-5zm13.33 0a5 5 0 1 0 5 5 5 5 0 0 0 -5-5zm-26.67-13.33a5 5 0 1 0 5 5 5 5 0 0 0 -5-5zm26.67 0-5.77 10h11.54zm-40 0v-11.67m-4.71 7 4.71 4.67 4.71-4.72" fill="none" stroke="#fff" stroke-linejoin="round"/></svg>

<svg xmlns="http://www.w3.org/2000/svg" viewBox="0 0 51.77 51"><defs><style>.cls-1{fill:none;stroke:#fff;stroke-linejoin:round;}</style></defs><title>train</title><g id="Layer_2" data-name="Layer 2"><g id="DESIGN_2" data-name="DESIGN 2"><path id="data-insights" class="cls-1" d="M23.83,50.5h-10v-10h10ZM37.17,27.17h-10v10h10ZM5.5.5a5,5,0,1,0,5,5A5,5,0,0,0,5.5.5Zm0,40a5,5,0,1,0,5,5A5,5,0,0,0,5.5,40.5Zm26.67,0a5,5,0,1,0,5,5A5,5,0,0,0,32.17,40.5Zm13.33,0a5,5,0,1,0,5,5A5,5,0,0,0,45.5,40.5ZM18.83,27.17a5,5,0,1,0,5,5A5,5,0,0,0,18.83,27.17Zm26.67,0-5.77,10H51.27Zm-40,0V15.5m-4.71,7L5.5,27.17l4.71-4.72"/></g></g></svg>
